X: 160
T:ROND DE SAINT-VINCENT N 4
M:4/4
L:1/4
Q:1/4=80
C:Yves BELOTTEAU
Z:Yves BELOTTEAU
K:G
% Last note suggests Phrygian mode tune
|EA/2B/2cB/2A/2 GA/2B/2A2|EE/2F/2GF/2E/2 DDE2|EA/2B/2cB/2A/2 GA/2B/2A2|E
E/2F/2GF/2E/2 DDE2|
EA/2B/2cB/2c/2 ecB2|dc/2B/2AA/2B/2 AGE2|EA/2B/2cB/2c/2 ecB2|A/2B/2c/2d/2
cB/2A/2 GA/2B/2A2|
dc/2B/2AA GBAA|dc/2B/2AA G=FE2|dc/2B/2AA GBAA|dc/2B/2AA G=FE2|
cc/2d/2ee dcB2|c/2B/2c/2d/2ee d/2e/2d/2c/2B2|cc/2d/2ee dcB2|c/2B/2c/2d/2
ee d/2e/2d/2c/2B2|
W:
W: From "Falaleiro" http://home.t-online.de/home/pheld/homepage.htm

